svgs/firefox_beta.svg

<svg width="24" height="24" viewBox="0 0 24 24" fill="none" xmlns="http://www.w3.org/2000/svg">
<path d="M14.9404 17C13.3167 17 11.9999 18.3167 12 19.9404C12 20.4191 12.0005 20.8978 12.0005 21.3764C12.0005 21.5973 12.1795 21.7763 12.4004 21.7763H19.2592C20.883 21.7763 22.1991 20.4599 22.1991 18.8359V17.3999C22.1991 17.179 22.0201 17 21.7992 17C19.5749 17 17.2057 17 14.9404 17ZM13.7671 18.4004H14.5913C15.0335 18.4004 15.2817 18.5995 15.2817 18.957C15.285 19.039 15.2652 19.1203 15.2247 19.1917C15.1841 19.2631 15.1244 19.3217 15.0522 19.3608C15.2187 19.4456 15.3115 19.5957 15.3115 19.8032C15.3115 20.1962 15.0387 20.3926 14.5967 20.3926H13.7671V18.4004ZM15.6801 18.4004H17.0195V18.7632H16.0649V19.2109H17.0195V19.5737H16.0649V20.0268H17.0195V20.3926H15.6801V18.4004ZM17.3501 18.4004H18.8315V18.7549H18.2832V20.3926H17.9038V18.7549H17.3501V18.4004ZM19.4838 18.4004H19.8627L20.6157 20.3926H20.2201L20.0893 20.0293H19.2573L19.1259 20.3926H18.7304L19.4838 18.4004ZM14.1465 18.7417V19.2026H14.605C14.8097 19.2026 14.8969 19.1018 14.8969 18.9653C14.8969 18.8261 14.8013 18.7417 14.5996 18.7417H14.1465ZM19.6747 18.8887L19.3852 19.6802H19.9614L19.6747 18.8887ZM14.1465 19.5493V20.0459H14.602C14.8123 20.0459 14.9214 19.9504 14.9214 19.7949C14.9214 19.6397 14.8289 19.5493 14.5859 19.5493H14.1465Z" fill="#FFF1C0"/>
<path d="M20.3516 8.3722C19.9599 7.40981 19.1666 6.37073 18.5437 6.04237C19.0507 7.0575 19.3442 8.0762 19.4563 8.83629L19.458 8.85161C18.8495 7.30229 17.9882 6.30502 17.0926 5.26793C16.4883 4.56824 15.8683 3.85042 15.2998 2.93272L15.2982 2.93009C15.2275 2.81573 15.1566 2.70111 15.0875 2.58029C15.0521 2.51813 15.019 2.45459 14.9883 2.38983C14.9298 2.27426 14.8847 2.15214 14.8539 2.02591C14.8541 2.01993 14.8521 2.01408 14.8483 2.00951C14.8445 2.00495 14.8392 2.00199 14.8334 2.00124C14.8279 1.99959 14.822 1.99959 14.8165 2.00124L14.812 2.00373L14.8084 2.0057L14.8054 2.00737L14.8092 2.0022C12.8053 3.20121 11.9747 4.69842 11.7611 6.03445C11.142 6.07038 10.5355 6.22848 9.97519 6.5L10.4288 7.37959C10.8619 7.17083 11.1209 7.15398 11.5494 7.12609C11.6045 7.12251 11.6624 7.11874 11.7239 7.11435L11.7402 7.11321C11.7523 7.11237 11.7645 7.11153 11.7766 7.11052C11.8507 7.10592 11.9248 7.10322 11.999 7.10244C12.4366 7.09932 12.8722 7.16096 13.2924 7.28543C13.3071 7.28981 13.3215 7.2946 13.3359 7.29939L13.3654 7.30903C13.4352 7.33083 13.5045 7.35435 13.5731 7.37959C13.6234 7.39866 13.6733 7.41864 13.7228 7.4395C13.7631 7.45612 13.8034 7.47276 13.8431 7.49049C13.905 7.51851 13.9662 7.54798 14.0268 7.57886L14.029 7.57996C14.0561 7.59369 14.0832 7.6074 14.1099 7.62165C14.1691 7.65336 14.2275 7.6864 14.2853 7.72075C14.3225 7.74283 14.3594 7.76551 14.396 7.78878C15.0488 8.20134 15.5905 8.7738 15.972 9.45426C15.4908 9.10892 14.6291 8.76787 13.799 8.91536C17.0405 10.5708 16.1703 16.2713 11.6786 16.0561C11.2786 16.0394 10.8833 15.9616 10.5059 15.8251C10.4166 15.7908 10.3284 15.754 10.2412 15.7145C10.1903 15.6908 10.1395 15.6669 10.0893 15.6404C8.98868 15.0593 8.0799 13.9613 7.96635 12.6278C7.96635 12.6278 8.38234 11.0444 10.9451 11.0444C11.2221 11.0444 12.0141 10.2547 12.0288 10.0257C12.0277 10.0012 11.8588 9.91638 11.6106 9.79177C11.1009 9.53583 10.2567 9.11203 9.84548 8.69812L9.74856 8.60053L9.74853 8.6005C9.48649 8.33657 9.34922 8.19831 9.2262 8.09176C9.15165 8.02746 9.07372 7.96736 8.99277 7.91171C8.78733 7.17759 8.77859 6.40058 8.96745 5.66182C8.04169 6.09247 7.32158 6.77315 6.79812 7.37415H6.79395C6.43665 6.9119 6.46189 5.38705 6.48225 5.06868C6.47798 5.04891 6.21574 5.20773 6.18135 5.23164C5.86611 5.46153 5.57139 5.71945 5.30063 6.00237C4.99253 6.32153 4.71101 6.66638 4.45901 7.03333C3.87952 7.8723 3.46855 8.82024 3.24986 9.82243L3.24935 9.82477C3.24194 9.85856 3.16188 10.2236 3.10286 10.6708C3.09249 10.7429 3.08288 10.815 3.07403 10.8873C3.0531 11.0266 3.03683 11.1784 3.02078 11.4147L3.01971 11.4306L3.01898 11.4419C3.01229 11.544 3.00627 11.6461 3.00094 11.7482C3.00094 11.7561 3.0007 11.7639 3.00047 11.7717C3.00023 11.7795 3 11.7873 3 11.7952C3 16.5295 6.49945 20.429 11.0003 20.9426L11 19.9405C10.9999 17.7644 12.7644 16 14.9404 16H19.6667H19.6922H20.0306C20.4429 15.1813 20.7386 14.2912 20.8952 13.3528C20.9061 13.2689 20.9154 13.1847 20.9247 13.1002L20.9362 12.9977C21.1153 11.419 20.9163 9.75976 20.3516 8.3722Z" fill="#FFF1C0"/>
</svg>

<svg xmlns="http://www.w3.org/2000/svg" width="24" height="24" fill="none" viewBox="0 0 24 24"><path fill="#FFF1C0" d="M14.94 17A2.94 2.94 0 0 0 12 19.94v1.436c0 .221.18.4.4.4h6.86a2.94 2.94 0 0 0 2.94-2.94V17.4a.4.4 0 0 0-.4-.4h-6.86m-1.173 1.4h.824c.443 0 .69.2.69.557a.44.44 0 0 1-.229.404c.167.085.26.235.26.442 0 .393-.273.59-.715.59h-.83V18.4m1.913 0h1.34v.363h-.955v.448h.954v.363h-.954v.453h.954v.366H15.68zm1.67 0h1.481v.355h-.548v1.638h-.38v-1.638h-.553zm2.134 0h.379l.753 1.993h-.396l-.13-.364h-.833l-.131.364h-.396l.754-1.993m-5.338.342v.46h.459c.205 0 .292-.1.292-.237 0-.139-.096-.223-.297-.223h-.453m5.529.147-.29.791h.576l-.286-.791m-5.529.66v.497h.456c.21 0 .32-.096.32-.251s-.093-.246-.336-.246h-.44"/><path fill="#FFF1C0" d="M20.352 8.372c-.392-.962-1.185-2.001-1.808-2.33.507 1.016.8 2.034.912 2.794l.002.016c-.608-1.55-1.47-2.547-2.365-3.584-.605-.7-1.225-1.418-1.793-2.335l-.002-.003c-.07-.114-.141-.229-.21-.35a2.864 2.864 0 0 1-.1-.19 1.696 1.696 0 0 1-.14-.38.023.023 0 0 0-.015-.009.03.03 0 0 0-.017 0l-.004.003-.004.002-.003.001.004-.005c-2.004 1.2-2.834 2.696-3.048 4.032a4.722 4.722 0 0 0-1.786.466l.454.88c.433-.21.692-.226 1.12-.254l.175-.012h.016c.012-.002.024-.002.037-.003a4.321 4.321 0 0 1 1.559.188l.03.01a4.403 4.403 0 0 1 .477.181c.062.029.123.058.184.089l.002.001c.027.014.054.027.08.042a4.53 4.53 0 0 1 .287.167 4.669 4.669 0 0 1 1.576 1.665c-.481-.345-1.343-.686-2.173-.539 3.242 1.656 2.371 7.356-2.12 7.141a3.929 3.929 0 0 1-1.173-.23 4.893 4.893 0 0 1-.417-.186c-1.1-.58-2.01-1.679-2.123-3.012 0 0 .416-1.584 2.98-1.584.276 0 1.068-.79 1.083-1.018-.001-.025-.17-.11-.418-.234-.51-.256-1.354-.68-1.766-1.094l-.096-.097c-.263-.264-.4-.403-.523-.51a2.695 2.695 0 0 0-.233-.18 4.354 4.354 0 0 1-.026-2.25c-.925.431-1.645 1.112-2.169 1.713h-.004c-.357-.462-.332-1.987-.312-2.305-.004-.02-.266.139-.3.163a6.61 6.61 0 0 0-.881.77c-.308.32-.59.664-.842 1.031a7.854 7.854 0 0 0-1.21 2.79v.002c-.007.034-.087.399-.146.846l-.029.216a6.3 6.3 0 0 0-.053.528l-.001.016-.001.01-.018.307v.024L3 11.795c0 4.734 3.5 8.634 8 9.148V19.94A3.94 3.94 0 0 1 14.94 16h5.091a9.277 9.277 0 0 0 .864-2.647c.011-.084.02-.168.03-.253l.011-.102c.18-1.579-.02-3.238-.584-4.626"/></svg>
